img/icons/prott.svg

<svg xmlns="http://www.w3.org/2000/svg" width="84" height="32" viewBox="0 0 84 32">
  <path d="M0,29.4186297 L0,23.2940378 C0,21.8642843 1.26236572,20.7154582 2.82026516,20.7154582 L8.58571179,20.7154582 C12.4510086,20.7154582 13.4686196,17.01968 13.4686196,15.0690013 C13.4686196,13.5722716 12.9973905,12.1694945 12.1808643,11.2095038 C11.3145748,10.2150948 10.1456424,9.72951812 8.58571179,9.72951812 L2.82026516,9.72951812 C1.26236572,9.72951812 0,8.57697115 0,7.15186868 C0,5.72955688 1.26236572,4.57142857 2.82026516,4.57142857 L8.58571179,4.57142857 C11.8375984,4.57142857 14.6842686,5.79374231 16.5986366,8.0179068 C18.2123929,9.88858635 19.1020408,12.3946086 19.1020408,15.0690013 C19.1020408,20.3033692 15.4195484,25.8716873 8.58571179,25.8716873 L5.63443684,25.8716873 L5.63443684,29.4186297 C5.63443684,30.8418717 4.37410228,32 2.82026516,32 C1.26236572,32 0,30.8418717 0,29.4186297 Z M31.6686551,4.57142857 C29.8704924,4.57142857 28.3522599,5.1202839 27.3899998,6.09552271 C27.3287651,5.12572709 26.224596,4.61769571 25.1350066,4.61769571 C23.9540511,4.61769571 22.6836735,5.202839 22.6836735,6.48561823 L22.5053103,23.3149285 C22.5053103,23.9254733 22.7774647,24.4398551 23.291642,24.8027346 C23.7348648,25.1148111 24.3248566,25.2871789 24.9508116,25.2871789 C26.088028,25.2871789 27.3117506,24.6893348 27.3117506,23.3757108 L27.4901137,13.3785154 C27.4901137,10.7158867 29.1833026,8.85703613 31.6074203,8.85703613 C31.8970703,8.85703613 32.1954681,8.8833449 32.5133055,8.93868403 C33.8186744,9.06659907 34.5670989,7.95346603 34.6195858,6.86119857 C34.6681848,5.83697102 34.1005486,4.75105395 32.7290851,4.63674689 C32.3752844,4.59320134 32.0185678,4.57142857 31.6686551,4.57142857 Z M56.1122449,14.8727294 C56.1122449,17.6972035 55.103409,20.2902407 53.2718048,22.1757424 C51.4111276,24.0886387 48.8168396,25.1428571 45.9647703,25.1428571 C43.1127009,25.1428571 40.518413,24.0886387 38.6577357,22.1757424 C36.8251625,20.2902407 35.8163265,17.6972035 35.8163265,14.8727294 C35.8163265,8.9999016 40.179227,4.57142857 45.9647703,4.57142857 C51.7503135,4.57142857 56.1122449,8.736347 56.1122449,14.8727294 Z M40.5918367,14.8882214 C40.5918367,18.0758642 42.9518803,20.5714286 45.9642857,20.5714286 C48.9766911,20.5714286 51.3367347,18.0758642 51.3367347,14.8882214 C51.3367347,11.6671808 48.9766911,9.14285714 45.9642857,9.14285714 C42.9518803,9.14285714 40.5918367,11.6671808 40.5918367,14.8882214 Z M83.5163294,21.9502027 C83.3237743,21.116888 82.6947609,20.5779049 81.9176282,20.5779049 C81.8030826,20.5779049 81.6875495,20.5891532 81.558192,20.614462 C81.1019845,20.7241333 80.6981125,20.7803751 80.3613879,20.7803751 C79.446998,20.7803751 79.0223893,20.3894952 79.0223893,19.5505563 L79.0223893,9.64639089 L81.3873611,9.64639089 C82.5328171,9.64639089 83.0551846,8.55811377 83.0551846,7.54763769 C83.0551846,6.53622424 82.5328171,5.44794712 81.3873611,5.44794712 L79.0223893,5.44794712 L79.0223893,1.8653501 C79.0223893,0.583976438 77.7574503,0 76.5803955,0 C75.4043281,0 74.1393891,0.583976438 74.1393891,1.8653501 L74.1393891,5.44794712 L65.2018695,5.44794712 L65.2018695,1.8653501 C65.2018695,0.583976438 63.9369306,0 62.7598757,0 C61.5838083,0 60.3188694,0.583976438 60.3188694,1.8653501 L60.3188694,5.44794712 L58.8781621,5.44794712 C58.3686317,5.44794712 57.9499477,5.67760078 57.6665461,6.11066196 C57.43548,6.4659221 57.3061224,6.94866346 57.3061224,7.46889929 C57.3061224,8.55061488 57.8462642,9.64639089 58.8781621,9.64639089 L60.3188694,9.64639089 L60.3188694,20.7381938 C60.3188694,23.4546684 62.0429782,25.1428571 64.8177468,25.1428571 C65.9790022,25.1428571 67.2459161,24.8541497 68.5868897,24.285171 C69.6148377,23.8343 69.88244,22.7591459 69.6958096,21.9502027 C69.502267,21.116888 68.8742411,20.5779049 68.0971084,20.5779049 C67.9825628,20.5779049 67.8670298,20.5891532 67.7376722,20.614462 C67.2804773,20.7241333 66.8775927,20.7803751 66.5379058,20.7803751 C65.6264782,20.7803751 65.2018695,20.3894952 65.2018695,19.5505563 L65.2018695,9.64639089 L74.1393891,9.64639089 L74.1393891,20.7381938 C74.1393891,23.4546684 75.863498,25.1428571 78.6402415,25.1428571 C79.8014969,25.1428571 81.0664359,24.8541497 82.4074094,24.285171 C83.4353575,23.8343 83.7029597,22.7591459 83.5163294,21.9502027 Z"/>
</svg>

<svg xmlns="http://www.w3.org/2000/svg" width="84" height="32" viewBox="0 0 84 32"><path d="M0 29.419v-6.125c0-1.43 1.262-2.579 2.82-2.579h5.766c3.865 0 4.883-3.695 4.883-5.646 0-1.497-.472-2.9-1.288-3.86-.866-.994-2.035-1.48-3.595-1.48H2.82C1.262 9.73 0 8.578 0 7.153c0-1.422 1.262-2.58 2.82-2.58h5.766c3.252 0 6.098 1.222 8.013 3.446 1.613 1.87 2.503 4.377 2.503 7.051 0 5.234-3.682 10.803-10.516 10.803H5.634v3.547c0 1.422-1.26 2.58-2.814 2.58C1.262 32 0 30.842 0 29.419zM31.669 4.57c-1.799 0-3.317.55-4.279 1.525-.061-.97-1.165-1.478-2.255-1.478-1.18 0-2.451.585-2.451 1.868l-.179 16.829c0 .61.272 1.125.787 1.488.443.312 1.033.484 1.659.484 1.137 0 2.36-.598 2.36-1.911l.18-9.997c0-2.663 1.692-4.522 4.116-4.522.29 0 .588.026.906.082 1.306.128 2.054-.986 2.107-2.078.048-1.024-.52-2.11-1.89-2.224a8.713 8.713 0 0 0-1.061-.066zm24.443 10.302c0 2.824-1.009 5.417-2.84 7.303-1.86 1.913-4.455 2.967-7.307 2.967-2.852 0-5.447-1.054-7.307-2.967-1.833-1.886-2.842-4.479-2.842-7.303C35.816 9 40.18 4.57 45.965 4.57c5.785 0 10.147 4.165 10.147 10.302zm-15.52.015c0 3.188 2.36 5.683 5.372 5.683 3.013 0 5.373-2.495 5.373-5.683 0-3.22-2.36-5.745-5.373-5.745-3.012 0-5.372 2.524-5.372 5.745zm42.924 7.062c-.192-.833-.821-1.372-1.598-1.372-.115 0-.23.011-.36.036-.456.11-.86.166-1.197.166-.914 0-1.339-.39-1.339-1.23V9.647h2.365c1.146 0 1.668-1.088 1.668-2.098 0-1.012-.522-2.1-1.668-2.1h-2.365V1.865C79.022.584 77.757 0 76.58 0c-1.176 0-2.44.584-2.44 1.865v3.583h-8.938V1.865C65.202.584 63.937 0 62.76 0c-1.176 0-2.441.584-2.441 1.865v3.583h-1.44c-.51 0-.93.23-1.212.663-.232.355-.36.838-.36 1.358 0 1.082.54 2.177 1.571 2.177h1.44v11.092c0 2.717 1.725 4.405 4.5 4.405 1.161 0 2.428-.289 3.769-.858 1.028-.45 1.295-1.526 1.109-2.335-.194-.833-.822-1.372-1.599-1.372-.114 0-.23.011-.36.036-.457.11-.86.166-1.2.166-.91 0-1.335-.39-1.335-1.23V9.647h8.937v11.092c0 2.717 1.724 4.405 4.501 4.405 1.161 0 2.426-.289 3.767-.858 1.028-.45 1.296-1.526 1.11-2.335z"/></svg>
